assets/icons/power-disabled.svg

<svg width="25" height="25" viewBox="0 0 25 25" fill="none" xmlns="http://www.w3.org/2000/svg">
<g id="power-disabled">
<path id="iconDefault" fill-rule="evenodd" clip-rule="evenodd" d="M15.2736 1.1047C15.5292 1.22914 15.6686 1.51044 15.6129 1.78923L14.0631 9.53819L20.1516 11.0603C20.3617 11.1129 20.5297 11.2705 20.5955 11.4768C20.6613 11.6832 20.6155 11.9089 20.4745 12.0734L17.6174 15.4067C17.3928 15.6688 16.9982 15.6992 16.7361 15.4745C16.474 15.2499 16.4437 14.8553 16.6683 14.5932L18.8673 12.0277L13.1818 10.6063C12.8581 10.5254 12.6551 10.2046 12.7205 9.87742L13.9181 3.88924L10.4745 7.90674C10.2499 8.16881 9.85534 8.19917 9.59327 7.97453C9.33119 7.74989 9.30084 7.35533 9.52547 7.09325L14.5255 1.25991C14.7105 1.04404 15.0179 0.980262 15.2736 1.1047ZM4.58478 4.53286C4.84277 4.30354 5.23782 4.32678 5.46714 4.58476L18.8005 19.5848C19.0298 19.8428 19.0066 20.2378 18.7486 20.4671C18.4906 20.6964 18.0955 20.6732 17.8662 20.4152L15.554 17.814L10.4745 23.7401C10.2895 23.9559 9.9821 24.0197 9.72646 23.8953C9.47082 23.7708 9.33139 23.4895 9.38715 23.2108L10.9369 15.4618L4.84842 13.9397C4.63828 13.8871 4.47032 13.7295 4.40453 13.5232C4.33874 13.3168 4.38451 13.091 4.52547 12.9266L7.80679 9.09837L4.53288 5.41522C4.30355 5.15723 4.32679 4.76218 4.58478 4.53286ZM8.64493 10.0413L6.13267 12.9723L11.8183 14.3937C12.1419 14.4746 12.345 14.7954 12.2795 15.1226L11.0819 21.1107L14.7159 16.8711L8.64493 10.0413Z" fill="#18303F"/>
</g>
</svg>

<svg width="25" height="25" viewBox="0 0 25 25" fill="none"><g id="power-disabled"><path id="iconDefault" fill-rule="evenodd" clip-rule="evenodd" d="M15.274 1.105a.625.625 0 0 1 .339.684l-1.55 7.75 6.089 1.521a.625.625 0 0 1 .322 1.013l-2.857 3.334a.625.625 0 1 1-.949-.814l2.2-2.565-5.686-1.422a.625.625 0 0 1-.462-.729l1.198-5.988-3.443 4.018a.625.625 0 1 1-.95-.814l5-5.833a.625.625 0 0 1 .749-.155ZM4.584 4.533a.625.625 0 0 1 .883.052l13.333 15a.625.625 0 1 1-.934.83l-2.312-2.601-5.08 5.926a.625.625 0 0 1-1.087-.53l1.55-7.748-6.089-1.522a.625.625 0 0 1-.323-1.013l3.282-3.829-3.274-3.683a.625.625 0 0 1 .052-.882Zm4.06 5.508-2.511 2.931 5.685 1.422c.324.08.527.401.462.729l-1.198 5.988 3.634-4.24-6.071-6.83Z" fill="#18303F"/></g></svg>
